!!!CDT: ~1560-1623
!!!PTL: Il secondo libro de madrigali a cinque voci
!!!PPP: Venice
!!!PPR: Heirs of G. Scotto
!!!PDT: 1599
!!!PUB-format:
!!!RISM: 1599-16
!!!rime: 23
!!!AGN: Madrigal
!!!SCT: Trm0023d
!!!SCA: Trm0023d
!!!original-voices: 5
!!!extant-voices: 1
!!!complete: N
!!!final: D?
!!!COM: Nanino, Giovanni Bernardino
!!!OTL: Io non posso gioire
**kern	**text
*part1	*part1
*staff1	*staff1
*I"Tenore	*
*I'T	*
*oclefC4	*
*clefGv2	*
*k[]	*
*omet(C)	*
*M4/2	*
=1	=1
2r	.
2D	Io
4D	non
4.D	pos-
8D	-so
4D	gio-
=2	=2
4.d	-i-
8c	.
2B-X	.
1A	-re
=3	=3
1F	Lun-
2E	-ge
2D	da
=4	=4
1A	voi,
4r	.
4A	che
4e	se-
4e	-te il
=5	=5
4d	mio
4f	de-
2e	-si-
2e	-re,
2A	Io
=6	=6
4A	non
4.A	pos-
8A	-so
4A	gio-
4.D	-i-
8E	.
8FL	.
8GJ	.
[4A	.
=7	=7
4A]	.
8G#XL	.
8F#XJ	.
4G#X	.
4G#i	.
1A	-re
=8	=8
2B	Lun-
2d	-ge
4.c#X	da
8d	voi,
2e	.
=9	=9
1r	.
4r	.
4E	che
4e	se-
4e	-te il
=10	=10
4d	mio
2f	de-
4.e	-si-
8d	.
2d	.
4c#X	.
=11	=11
1d	-re;
1r	.
=12	=12
2r	.
2d	Ma'l
2c	mio
2B-X	pen-
=13	=13
2A	-sier
2c	fal-
2BnXi	-la-
2A	-ce
=14	=14
4r	.
2e	Pas-
4f#X	-sa
2g	mon-
4c	-ti,
4d	cam-
=15	=15
4e	-pa-
4A	-gne,
4c	ma-
4d	-ri e
4e	fiu-
8dL	.
8cJ	.
2d	.
=16	=16
2c	-mi,
2r	.
1r	.
=17	=17
2r	.
4r	.
4A	Ma'l
2G	mio
2F	pen-
=18	=18
2E	-sier
4r	.
4c	fal-
4B	-la-
2c	.
8BL	.
8AJ	.
=19	=19
2B	-ce
2r	.
1r	.
=20	=20
2e	Pas-
4f#X	-sa
2g	mon-
4c	-ti,
4d	cam-
[4e	-pa-
=21	=21
4e]	.
4c	-gne,
4c	ma-
8BL	.
8AJ	.
4G#X	.
4c	-ri e
2B	fiu-
=22	=22
2A	-mi;
4r	.
4c#X	E
2d	m'a-
4d	-vi-
[4d	-ci-
=23	=23
4d]	.
4c#X	-na e
4.d	sfa-
8e	.
2f	.
2e	-ce
=24	=24
0r	.
=25	=25
2B	Al
1B	dol-
2A	-ce
=26	=26
2A	fo-
2G	-co
4r	.
4G	de'
4G	bei
[4A	vo-
=27	=27
4A]	.
4G	-stri
2G	lu-
2G	-mi;
[2c	E
=28	=28
2c]	.
2B	lan-
1A	-guir
=29	=29
2G	sì
2E	mi
2F	pia-
2F	-ce,
=30	=30
2r	.
1c	E
2B	lan-
=31	=31
1c	-guir
2F	sì
2F	mi
=32	=32
1B-i	pia-
1A	-ce,
=33	=33
0r	.
=34	=34
1r	.
2r	.
[2A	E
=35	=35
2A]	.
2G	lan-
1F	-guir
=36	=36
2E	sì
2C	mi
4.D	pia-
8E	.
[2F	.
=37	=37
2F]	.
2E	-ce,
1r	.
=38	=38
1c	<E
2d	lan-
2e	-guir
=39	=39
2c	sì
2c	mi
1f	pia-
=40	=40
4e	-ce>
4.c	Ch'in-
8c	-fi-
4c	-ni-
4A	-to
4B	di-
[2c	-let-
=41	=41
4c]	.
4c	-to ho
4c	nel
4A	mar-
2G#X	-ti-
2A	-re,
=42	=42
1r	.
4r	.
4.c	Ch'in-
8c	-fi-
4c	-ni-
=43	=43
4d	-to
4e	di-
2f	-let-
2c	-to,
2r	.
=44	=44
4r	.
4.A	Ch'in-
8A	-fi-
4A	-ni-
4F	-to
4G	di-
[2A	-let-
=45	=45
2A]	.
2B-X	-to ho
4.A	nel
8G	.
4F	.
4F	mar-
=46	=46
1E	-ti-
1Dl	-re.
==	==
*-	*-
!!!RDF**kern: i = editorial accidental
!!!RDF**kern: l = terminal long
!!!ENC: Emiliano Ricciardi
!!!END: 2018
!!!EED: Ricciardi, Emiliano
!!!EEV: 2018/09/18
!!!YEC: Copyright 2018 Emiliano Ricciardi, All Rights Reserved
!!!ONB: Translated from MusicXML on 2018/09/18 and edited by Craig Stuart Sapp
!!@@BEGIN:	VERSEDATA
!!@SOLERTI:	23
!!@CATALOGNUM:	Trm0023
!!@LAST_MODIFIED: 2020/07/12
!!@TITLE:		Io non posso gioire
!!@GENRE:		madrigale
!!@MANUSRC:	C, V<sub>8</sub>
!!@PRINTSRC:	27, 48, 70, 141, 145, 166, 169
!!@@BEGIN:	VERSES
!!@ABOUTIT:	Ne la lontananza de la sua donna dice di non poter avere alcun piacer lontano da lei se non quello ch'egli sente nel patir di lei.
!!@ABOUTEN:	In the absence of his lady, he says he experiences no pleasure away from her but the one he feels in languishing for her.
!!@EDITOR:	Solerti, Angelo
!!@EDITION_TITLE: Le Rime di Torquato Tasso
!!@EDITION_LOC:	Bologna
!!@EDITION_PUB:	Romagnoli-Dall’Acqua
!!@EDITION_DATE:  1898-1902
!!@EDITION_VOL:	2
!!@EDITION_PAGE:  35
!!@TRANSLATOR:	Maria Pastore Passaro; adapted by Emiliano Ricciardi and Amyrose McCue Gill
!!@TRANSLATION_TITLE: Rhymes of Love
!!@TRANSLATION_LOC: Mineola, NY
!!@TRANSLATION_PUB: Legas
!!@TRANSLATION_DATE: 2011
!!@TRANSLATION_PAGE: 40-41
!!@VERSE:
!!	Io non posso gioire
!!	Lunge da voi, che siete il mio desire;
!!	Ma 'l mio pensier fallace
!!	Passa monti e campagne e mari e fiumi;
!!	E m'avicina e sface
!!	Al dolce foco de' be' vostri lumi;
!!	E 'l languir sì mi piace,
!!	Ch'infinito diletto ho nel martire.
!!@TVERSE:
!!	I cannot feel joy
!!	Far from you, who are my desire;
!!	Yet my erring thought
!!	Crosses mountains and fields and seas and streams;
!!	It draws me close and undoes me
!!	In the sweet fire of your beautiful eyes;
!!	And to languish so pleases me
!!	That I find infinite delight in suffering.
!!@@END:		VERSES
!!@OTHER_CRIT_ED: Torquato Tasso, <i>Rime d’amore (secondo il codice
!!		Chigiano L VIII 302)</i>, eds. Franco Gavazzeni and
!!		Vercingetorige Martignone, vol. 4 of <i>Edizione
!!		Nazionale delle opere di Torquato Tasso</i>
!!		(Alessandria: Edizioni Dell’Orso, 2004), 14.
!!@ATTRIBUTION_ABOUT:	Secure
!!		<br>
!!		This poem appears in the autograph Chigiano
!!		L.VIII.302 (Biblioteca Vaticana, Rome), compiled
!!		around 1584&ndash;85 (see Literary Sources).
!!@DATING:
!!@DEDICATEE:	Bendidio, Lucrezia
!!@COMMENTARY:
!!@@END:		VERSEDATA
!!@@BEGIN:	SETTING
!!@CATALOGNUM:	Trm0023d
!!@RIMETITLE:	Io non posso gioire
!!@SOLERTI:	23
!!@COMPOSER:	Nanino, Giovanni Bernardino
!!@PRINCEPSTITLE:	Il secondo libro de madrigali a cinque voci
!!@PRINCEPSLOC:	Venetia
!!@NORMLOC:	Venice
!!@NORMPUB:	Heirs of G. Scotto
!!@NORMPUBSHORT:	Scotto
!!@PRINCEPSPUB:	Heredi di Scotto
!!@PRINCEPSYEAR:	1599
!!@PRINCEPSRISM:	1599-16
!!@REPRINTS:	
!!@OVOICES:	5
!!@EXTANTVOICES:	1
!!@PARTBOOKS:	
!!@EXTPARTBOOKS:	
!!@OCLEFS:	C4
!!@OMENSURATION:	C
!!@OKEYSIG:	-
!!@FINAL:	D?
!!@TIMPEDITOR:	Ricciardi, Emiliano
!!@NOTE:		
!!@@END:		SETTING
